X:1
T:O Lux Beata, LM
T:O Lux Beata, LM
T:Proper Sarum Melody
T:Public Domain Courtesy of the Cyber Hymnal™
C:Proper Sarum Melody
Z:Public Domain
Z:Courtesy of the Cyber Hymnal™
%%score ( 1 2 ) ( 3 4 )
L:1/8
Q:1/4=115
M:none
K:D
V:1 treble 
V:2 treble 
V:3 bass 
V:4 bass 
V:1
 A2 B2 A2 GF x2 | G2 E2 [DF]2 [DG]2 | A2 B2 [DB]2 [CA]2 | [DA]4 A2 B2 | [DA]2 GF [CG]2 E2 | %5
 [DF]2 [DG]2 [EA]2 [FB]2 | [DB]2 [CA]2 [CA]4 | A2 B2 [Fd]2 [Ec]2 | [Dd]2 B2 [EA]2 [DG]2 | %9
 [DA]2 [GB]2 [FA]2 [EG][DF] | [CF]4 G2 [DA]2 | A2 GF G2 [CE]2 | [DF]2 [DG]2 A2 B2 | %13
 B2 z [DA]4 x2 |] %14
V:2
 D4 C6 | x2 E2 x4 | D4 x4 | x4 D4 | x2 B,2 x E2 x | x8 | x8 | D4 x4 | x2 GF x4 | x8 | x4 EC x2 | %11
 C6 x2 | x4 D4 | D6 (A2 C) |] %14
V:3
 [D,F,]2 [G,,G,]2 [A,,E,]4- x2 | [A,,E,]2 [C,A,]2 [D,A,]2 [B,,G,]2 | [F,,F,]2 [G,,D,]2 G,4 | %3
 [D,F,]4 [D,F,]2 [G,,G,]2 | F,2 D,2 E,2 [C,A,]2 | [D,A,]2 [B,,G,]2 [C,G,]2 [D,F,]2 | %6
 [E,^G,]2 [A,,A,]2 [A,,A,]4 | F,2 G,2 [D,A,]2 [E,G,]2 | [F,A,]2 [G,D]2 [A,C]2 [B,D]2 | %9
 D4 [D,D]2 B,2 | [F,^A,]4 B,G, [D,F,]2 | [A,,E,]6 [A,,A,]2 | A,2 [B,,G,]2 [A,,F,]2 [G,,G,]2 | %13
 [G,,E,]2 [A,,G,]2 [D,F,]4 x |] %14
V:4
 x10 | x8 | x4 G,,2 A,,2 | x8 | A,,6 x2 | x8 | x8 | D,4 x4 | x8 | F,2 G,2 E,F, x2 | x4 E,2 x2 | %11
 x8 | D,C, x6 | x9 |] %14

